src/assets/img/sponsors/mlh.svg

<?xml version="1.0" encoding="UTF-8"?>
<svg width="555px" height="118px" viewBox="0 0 555 118" version="1.1" xmlns="http://www.w3.org/2000/svg" xmlns:xlink="http://www.w3.org/1999/xlink">
    <!-- Generator: Sketch 52.2 (67145) - http://www.bohemiancoding.com/sketch -->
    <title>Untitled</title>
    <desc>Created with Sketch.</desc>
    <g id="Page-1" stroke="none" stroke-width="1" fill="none" fill-rule="evenodd">
        <g id="mlh">
            <path d="M109,1.6 C111.240635,2.57610936 113.276418,3.96722818 115,5.7 C116.700889,7.44987115 118.087813,9.47951559 119.1,11.7 C120.104229,14.0370605 120.614897,16.5563599 120.6,19.1 L120.6,113.9 C120.608098,114.724627 120.284093,115.517838 119.700966,116.100966 C119.117838,116.684093 118.324627,117.008098 117.5,117 L94.8,117 C93.998078,117.043187 93.2217764,116.710486 92.7,116.1 C92.1726335,115.489546 91.8879302,114.706612 91.9,113.9 L91.9,27.7 L73.6,27.7 L73.6,113.9 C73.6120698,114.706612 73.3273665,115.489546 72.8,116.1 C72.2660375,116.6937 71.4981706,117.022786 70.7,117 L50.1,117 C49.2753729,117.008098 48.4821617,116.684093 47.8990341,116.100966 C47.3159066,115.517838 46.9919016,114.724627 47,113.9 L47,27.7 L28.7,27.7 L28.7,113.9 C28.7,116 27.7,117 25.6,117 L3.1,117 C1,117 0,116 0,113.9 L0,3.2 C0,1.1 1,0.1 3.1,0.1 L101.5,0.1 C104.075832,0.0864356562 106.627526,0.596774277 109,1.6 Z" id="Shape" fill="#C53C02"></path>
            <path d="M109,1.6 C111.240635,2.57610936 113.276418,3.96722818 115,5.7 C116.700889,7.44987115 118.087813,9.47951559 119.1,11.7 C120.104229,14.0370605 120.614897,16.5563599 120.6,19.1 L120.6,27.5 L91.9,27.7 L28.8,27.7 L0.1,27.5 L0.1,3.1 C0.1,1 1.1,0 3.2,0 L101.6,0 C104.143503,0.0783869967 106.651308,0.620615113 109,1.6 Z" id="Shape-2" fill="#751B00"></path>
            <path d="M219.5,88.6 C220.330841,88.5569848 221.137531,88.8869946 221.7,89.5 C222.298609,90.1134637 222.623283,90.9431873 222.6,91.8 L222.6,113.9 C222.604894,114.753499 222.282855,115.576489 221.7,116.2 C221.126037,116.79629 220.327323,117.123036 219.5,117.1 L141.8,117.1 C139.6,117.1 138.5,116 138.5,113.9 L138.5,3.3 C138.5,1.2 139.6,0.1 141.8,0.1 L165.6,0.1 C167.8,0.1 168.9,1.2 168.9,3.3 L168.9,85.7 C168.86823,86.5499027 169.238773,87.3650959 169.9,87.9 C170.524838,88.4702567 171.356148,88.7594079 172.2,88.7 L219.5,88.7 L219.5,88.6 Z" id="Shape-3" fill="#265A8F"></path>
            <path d="M168.7,117 L141.8,117 C139.6,117 138.5,115.9 138.5,113.8 L138.5,3.3 C138.5,1.2 139.6,0.1 141.8,0.1 L165.6,0.1 C167.8,0.1 168.9,1.2 168.9,3.3 L168.9,85.7 C168.9,86.5 168.7,117 168.7,117 Z" id="Shape-4" fill="#162F51"></path>
            <path d="M338.9,0.1 C339.756813,0.0767169423 340.586536,0.401391397 341.2,1 C341.826702,1.60264186 342.186709,2.43065749 342.2,3.3 L342.2,114.2 C342.218496,115.075905 341.853181,115.916129 341.2,116.5 C340.586536,117.098609 339.756813,117.423283 338.9,117.4 L314.7,117.4 C313.843187,117.423283 313.013464,117.098609 312.4,116.5 C311.773298,115.897358 311.413291,115.069343 311.4,114.2 L311.4,75.5 C311.423635,74.6617008 311.086925,73.8534564 310.475111,73.2798813 C309.863298,72.7063061 309.035033,72.4223868 308.2,72.5 L274.3,72.5 C273.463268,72.4888657 272.649213,72.7720153 272,73.3 C271.372982,73.860711 271.010168,74.6589028 271,75.5 L271,114.2 C271,116.3 269.9,117.4 267.7,117.4 L243.7,117.4 C241.5,117.4 240.4,116.3 240.4,114.2 L240.4,3.3 C240.4,1.2 241.5,0.1 243.7,0.1 L267.7,0.1 C269.9,0.1 271,1.2 271,3.3 L271,40.8 C271,42.9 272.1,44 274.3,44 L308.2,44 C309.05871,44.034162 309.892643,43.7080036 310.500323,43.1003233 C311.108004,42.492643 311.434162,41.6587104 311.4,40.8 L311.4,3.3 C311.381504,2.42409515 311.746819,1.58387148 312.4,1 C313.013464,0.401391397 313.843187,0.0767169423 314.7,0.1 L338.9,0.1 Z" id="Shape-5" fill="#FDEE00"></path>
            <path d="M271.1,75.5 L271.1,114.2 C271.1,116.3 270,117.4 267.8,117.4 L243.8,117.4 C241.6,117.4 240.5,116.3 240.5,114.2 L240.5,3.3 C240.5,1.2 241.6,0.1 243.8,0.1 L267.8,0.1 C270,0.1 271.1,1.2 271.1,3.3 L271.1,75.5 Z" id="Shape-6" fill="#ECC700"></path>
            <path d="M338.9,0.1 C339.756813,0.0767169423 340.586536,0.401391397 341.2,1 C341.826702,1.60264186 342.186709,2.43065749 342.2,3.3 L342.2,114.2 C342.218496,115.075905 341.853181,115.916129 341.2,116.5 C340.586536,117.098609 339.756813,117.423283 338.9,117.4 L314.7,117.4 C313.843187,117.423283 313.013464,117.098609 312.4,116.5 C311.773298,115.897358 311.413291,115.069343 311.4,114.2 L311.4,3.3 C311.381504,2.42409515 311.746819,1.58387148 312.4,1 C313.013464,0.401391397 313.843187,0.0767169423 314.7,0.1 L338.9,0.1 Z" id="Shape-7" fill="#ECC700"></path>
            <path d="M446,3.6 L446,114.23 C446,116.35 444.943333,117.406667 442.83,117.4 L419.76,117.4 C417.64,117.4 416.583333,116.343333 416.59,114.23 L416.59,31.67 C416.59,31.23 416.34,31.03 415.84,31.09 C415.178495,31.2250684 414.568485,31.5439371 414.08,32.01 L405.89,38.36 C405.223333,38.92 404.64,39.06 404.14,38.78 C403.58234,38.3828778 403.292978,37.7076999 403.39,37.03 L403.39,13.63 C403.409031,12.6622941 403.666652,11.7142501 404.14,10.87 C404.571565,10.0105044 405.165894,9.24297084 405.89,8.61 L414.08,2.26 C414.872117,1.64259755 415.780023,1.19034479 416.75,0.93 C417.720668,0.619583984 418.731125,0.451174386 419.75,0.43 L442.81,0.43 C444.936667,0.43 446,1.48666667 446,3.6 Z" id="Path" fill="#000000"></path>
            <path d="M534.89,0.43 C537.50885,0.412335258 540.101971,0.947315551 542.5,2 C547.160356,3.98776597 550.872234,7.69964428 552.86,12.36 C553.917893,14.7535451 554.459658,17.3431119 554.45,19.96 L554.45,114.21 C554.458095,115.053192 554.126714,115.864206 553.53046,116.46046 C552.934206,117.056714 552.123192,117.388095 551.28,117.38 L528,117.38 C527.176282,117.40892 526.38193,117.072144 525.83,116.46 C525.266972,115.844436 524.965697,115.033864 524.99,114.2 L524.99,86.82 C525.016171,85.9967934 524.679865,85.2035508 524.07,84.65 C523.452778,84.089691 522.643343,83.788839 521.81,83.81 L484.6,83.81 C481.982929,83.8214606 479.39299,83.279618 477,82.22 C474.674001,81.2004321 472.550227,79.7710339 470.73,78 C468.927505,76.248532 467.504671,74.1449152 466.55,71.82 C465.546247,69.4126333 465.036163,66.8282068 465.05,64.22 L465.05,20 C465.036435,17.3918191 465.546508,14.807446 466.55,12.4 C467.506182,10.0758956 468.928821,7.97256909 470.73,6.22 C472.551595,4.45065121 474.675048,3.02146956 477,2 C479.394856,0.948405686 481.984486,0.413442624 484.6,0.43 L534.9,0.43 L534.89,0.43 Z M526,27 L493.45,27 L493.45,56.41 L526,56.41 L526,27 Z" id="Shape" fill="#000000" fill-rule="nonzero"></path>
        </g>
    </g>
</svg>

<svg xmlns="http://www.w3.org/2000/svg" viewBox="0 0 554.45 117.4"><defs><style>.cls-1{fill:#c53c02;}.cls-2{fill:#751b00;}.cls-3{fill:#265a8f;}.cls-4{fill:#162f51;}.cls-5{fill:#fdee00;}.cls-6{fill:#ecc700;}</style></defs><title>Asset 1</title><g id="Layer_2" data-name="Layer 2"><g id="Layer_1-2" data-name="Layer 1"><path id="Shape" class="cls-1" d="M109,1.6a19.38,19.38,0,0,1,6,4.1,21.26,21.26,0,0,1,4.1,6,18.47,18.47,0,0,1,1.5,7.4v94.8a3.07,3.07,0,0,1-3.1,3.1H94.8a2.58,2.58,0,0,1-2.1-.9,3.29,3.29,0,0,1-.8-2.2V27.7H73.6v86.2a3.29,3.29,0,0,1-.8,2.2,2.72,2.72,0,0,1-2.1.9H50.1a3.07,3.07,0,0,1-3.1-3.1V27.7H28.7v86.2c0,2.1-1,3.1-3.1,3.1H3.1C1,117,0,116,0,113.9V3.2C0,1.1,1,.1,3.1.1h98.4A19,19,0,0,1,109,1.6Z"/><path id="Shape-2" data-name="Shape" class="cls-2" d="M109,1.6a19.38,19.38,0,0,1,6,4.1,21.26,21.26,0,0,1,4.1,6,18.47,18.47,0,0,1,1.5,7.4v8.4l-28.7.2H28.8L.1,27.5V3.1C.1,1,1.1,0,3.2,0h98.4A20.9,20.9,0,0,1,109,1.6Z"/><path id="Shape-3" data-name="Shape" class="cls-3" d="M219.5,88.6a2.79,2.79,0,0,1,2.2.9,3.17,3.17,0,0,1,.9,2.3v22.1a3.34,3.34,0,0,1-.9,2.3,2.94,2.94,0,0,1-2.2.9H141.8c-2.2,0-3.3-1.1-3.3-3.2V3.3c0-2.1,1.1-3.2,3.3-3.2h23.8c2.2,0,3.3,1.1,3.3,3.2V85.7a2.7,2.7,0,0,0,1,2.2,3.09,3.09,0,0,0,2.3.8h47.3v-.1Z"/><path id="Shape-4" data-name="Shape" class="cls-4" d="M168.7,117H141.8c-2.2,0-3.3-1.1-3.3-3.2V3.3c0-2.1,1.1-3.2,3.3-3.2h23.8c2.2,0,3.3,1.1,3.3,3.2V85.7c0,.8-.2,31.3-.2,31.3Z"/><path id="Shape-5" data-name="Shape" class="cls-5" d="M338.9.1a3.17,3.17,0,0,1,2.3.9,3.26,3.26,0,0,1,1,2.3V114.2a3,3,0,0,1-1,2.3,3.17,3.17,0,0,1-2.3.9H314.7a3.17,3.17,0,0,1-2.3-.9,3.26,3.26,0,0,1-1-2.3V75.5a2.93,2.93,0,0,0-3.2-3H274.3a3.57,3.57,0,0,0-2.3.8,3,3,0,0,0-1,2.2v38.7c0,2.1-1.1,3.2-3.3,3.2h-24c-2.2,0-3.3-1.1-3.3-3.2V3.3c0-2.1,1.1-3.2,3.3-3.2h24c2.2,0,3.3,1.1,3.3,3.2V40.8c0,2.1,1.1,3.2,3.3,3.2h33.9a3.08,3.08,0,0,0,3.2-3.2V3.3a3,3,0,0,1,1-2.3,3.17,3.17,0,0,1,2.3-.9Z"/><path id="Shape-6" data-name="Shape" class="cls-6" d="M271.1,75.5v38.7c0,2.1-1.1,3.2-3.3,3.2h-24c-2.2,0-3.3-1.1-3.3-3.2V3.3c0-2.1,1.1-3.2,3.3-3.2h24c2.2,0,3.3,1.1,3.3,3.2V75.5Z"/><path id="Shape-7" data-name="Shape" class="cls-6" d="M338.9.1a3.17,3.17,0,0,1,2.3.9,3.26,3.26,0,0,1,1,2.3V114.2a3,3,0,0,1-1,2.3,3.17,3.17,0,0,1-2.3.9H314.7a3.17,3.17,0,0,1-2.3-.9,3.26,3.26,0,0,1-1-2.3V3.3a3,3,0,0,1,1-2.3,3.17,3.17,0,0,1,2.3-.9Z"/><path d="M446,3.6V114.23q0,3.18-3.17,3.17H419.76q-3.18,0-3.17-3.17V31.67c0-.44-.25-.64-.75-.58a3.59,3.59,0,0,0-1.76.92l-8.19,6.35q-1,.84-1.75.42a1.83,1.83,0,0,1-.75-1.75V13.63a5.88,5.88,0,0,1,.75-2.76,7.43,7.43,0,0,1,1.75-2.26l8.19-6.35A7.51,7.51,0,0,1,416.75.93a10.57,10.57,0,0,1,3-.5h23.06Q446,.43,446,3.6Z"/><path d="M534.89.43A18.62,18.62,0,0,1,542.5,2a19.64,19.64,0,0,1,10.36,10.36,18.63,18.63,0,0,1,1.59,7.6v94.25a3.14,3.14,0,0,1-3.17,3.17H528a2.79,2.79,0,0,1-2.17-.92,3.21,3.21,0,0,1-.84-2.26V86.82a2.81,2.81,0,0,0-.92-2.17,3.24,3.24,0,0,0-2.26-.84H484.6a18.57,18.57,0,0,1-7.6-1.59A21.19,21.19,0,0,1,470.73,78a18.32,18.32,0,0,1-4.18-6.18,19.48,19.48,0,0,1-1.5-7.6V20a19.49,19.49,0,0,1,1.5-7.6,18.38,18.38,0,0,1,4.18-6.18A21.29,21.29,0,0,1,477,2,18.61,18.61,0,0,1,484.6.43h50.3ZM526,27H493.45V56.41H526Z"/></g></g></svg>
